X: 15864
T: Grace Nugent
R: reel
M: 4/4
K: Gdorian
G2|G2d2 G2A2|B2cB A2G2|d2G2 cBAG|F6 d2|
BABc B2c2|dcde f2d2|G2d2 cBAB|G6:|
de|f2f2 fgfe|f2F2 F2ef|g2g2 gagf|g2G2 G2ga|
b2B2 BcdB|b2d'2 c'2b2|a2g2 f2ef|d6 de|
f2c2 cdec|f2c2 cdef|g2d2 defd|g4 f2de|
f2B2 f2ef|g2d2 c2B2|cBAG FGAF|G6||

